html/dist/img/svg/account.svg

<svg width="26" height="26" viewBox="0 0 26 26" fill="none" xmlns="http://www.w3.org/2000/svg">
<path d="M13 0C5.82055 0 0 5.82055 0 13C0 20.1795 5.82055 26 13 26C20.1795 26 26 20.1795 26 13C25.9924 5.82359 20.1764 0.00761719 13 0ZM13 1.23805C19.4868 1.22941 24.7528 6.4807 24.762 12.968C24.765 15.2471 24.1048 17.4779 22.8622 19.3888C18.1843 13.942 9.97699 13.3189 4.5302 17.9969C4.03152 18.425 3.56637 18.8906 3.13828 19.3888C-0.399141 13.9506 1.14156 6.6752 6.57922 3.13777C8.49012 1.89516 10.7209 1.235 13 1.23805ZM13 24.762C9.46461 24.7614 6.11812 23.1689 3.88832 20.4257C7.98688 15.3933 15.3888 14.6367 20.4212 18.7347C21.0407 19.2395 21.6074 19.8057 22.1122 20.4257C19.8819 23.1689 16.5354 24.7614 13 24.762Z" fill="#343434"/>
<path d="M13 12.9999C15.3934 12.9999 17.3332 11.0595 17.3332 8.66669C17.3332 6.27387 15.3934 4.33301 13 4.33301C10.6067 4.33301 8.66687 6.27336 8.66687 8.66618C8.66941 11.0585 10.6077 12.9973 13 12.9999ZM13 5.57106C14.7093 5.57106 16.0952 6.95688 16.0952 8.66618C16.0952 10.3755 14.7093 11.7613 13 11.7613C11.2907 11.7613 9.90492 10.3755 9.90492 8.66618C9.90695 6.95789 11.2912 5.57309 13 5.57106Z" fill="#343434"/>
</svg>

<svg width="26" height="26" viewBox="0 0 26 26" fill="none" xmlns="http://www.w3.org/2000/svg"><path d="M13 0C5.82 0 0 5.82 0 13s5.82 13 13 13 13-5.82 13-13C25.992 5.824 20.176.008 13 0zm0 1.238c6.487-.009 11.753 5.243 11.762 11.73a11.75 11.75 0 01-1.9 6.42c-4.678-5.446-12.885-6.07-18.332-1.391-.498.428-.964.894-1.392 1.392C-.399 13.95 1.142 6.675 6.58 3.138a11.75 11.75 0 016.42-1.9zm0 23.524a11.744 11.744 0 01-9.112-4.336c4.099-5.033 11.5-5.79 16.533-1.691.62.505 1.186 1.07 1.691 1.69A11.746 11.746 0 0113 24.763z" fill="#343434"/><path d="M13 13a4.333 4.333 0 100-8.667A4.333 4.333 0 0013 13zm0-7.429a3.095 3.095 0 110 6.19 3.095 3.095 0 010-6.19z" fill="#343434"/></svg>
